apps/www/public/images/logos/publicity/archive/langchain.svg

<svg width="179" height="31" viewBox="0 0 179 31" fill="none" xmlns="http://www.w3.org/2000/svg">
<g clip-path="url(#clip0_114_298)">
<path d="M45.8679 8.30516C45.078 8.30516 44.3352 8.61118 43.7792 9.1671L41.5325 11.4077C40.9265 12.0122 40.6151 12.8515 40.6789 13.7119C40.6834 13.7589 40.688 13.8059 40.6926 13.8543C40.773 14.5148 41.0632 15.1102 41.5325 15.5768C41.8561 15.8995 42.2131 16.1041 42.646 16.2465C42.6688 16.3767 42.6809 16.5085 42.6809 16.6403C42.6809 17.2342 42.4501 17.7917 42.0308 18.2098L41.8925 18.3477C41.1422 18.0916 40.5163 17.7175 39.9512 17.1539C39.2009 16.4055 38.7041 15.4602 38.5173 14.4225L38.4915 14.2785L38.3775 14.371C38.3001 14.433 38.2271 14.4997 38.1588 14.5678L35.9121 16.8085C34.7607 17.9568 34.7607 19.8278 35.9121 20.9761C36.4878 21.5502 37.2443 21.8381 38.0023 21.8381C38.7603 21.8381 39.5153 21.5502 40.091 20.9761L42.3377 18.7355C43.4891 17.5871 43.4891 15.7177 42.3377 14.5678C42.0308 14.2619 41.6647 14.0316 41.25 13.8831C41.2273 13.7483 41.2151 13.6135 41.2151 13.4817C41.2151 12.8363 41.4703 12.2243 41.9382 11.7577C42.6901 12.0137 43.3569 12.4288 43.9205 12.9908C44.6694 13.7377 45.1646 14.6815 45.3544 15.7223L45.3803 15.8661L45.4942 15.7738C45.5717 15.7117 45.6446 15.645 45.7145 15.5753L47.9612 13.3348C49.1126 12.1864 49.1141 10.3155 47.9612 9.1671C47.4037 8.61118 46.6623 8.30516 45.871 8.30516H45.8679Z" fill="#B4B4B4"/>
<path d="M44.664 0.110809H15.2675C6.89155 0.110809 0.0771484 6.90681 0.0771484 15.2602C0.0771484 23.6135 6.89155 30.4096 15.2675 30.4096H44.664C53.04 30.4096 59.8544 23.6135 59.8544 15.2602C59.8544 6.90681 53.04 0.110809 44.664 0.110809ZM30.1648 23.862C29.6802 23.962 29.1348 23.9801 28.7642 23.5939C28.6275 23.9074 28.3085 23.7423 28.0624 23.7014C28.0396 23.765 28.0199 23.8211 27.9986 23.8847C27.1798 23.9393 26.5661 23.1061 26.1758 22.4774C25.401 22.0592 24.5215 21.8047 23.7301 21.3669C23.6845 22.088 23.8425 22.9818 23.1543 23.4469C23.1194 24.8331 25.2567 23.6106 25.4527 24.6437C25.3008 24.6604 25.1322 24.6194 25.0107 24.7361C24.4532 25.277 23.8137 24.3271 23.1711 24.7195C22.3083 25.1527 22.2217 25.5072 21.1538 25.5966C21.0946 25.5072 21.1189 25.4481 21.169 25.3936C21.4698 25.0452 21.4911 24.6346 22.0045 24.4861C21.4759 24.4028 21.0338 24.6937 20.5887 24.924C20.0099 25.1603 20.0146 24.3907 19.1244 24.9648C19.0256 24.8846 19.0727 24.8119 19.1289 24.7498C19.3552 24.4741 19.653 24.4331 19.9887 24.4483C18.3375 23.5302 17.5598 25.5708 16.7972 24.5559C16.5679 24.6165 16.4813 24.8224 16.3369 24.9679C16.2124 24.8316 16.3066 24.6664 16.3127 24.5058C16.1638 24.4362 15.9754 24.4028 16.0195 24.165C15.7278 24.0665 15.5243 24.2392 15.3071 24.4028C15.1111 24.2513 15.4392 24.0302 15.4999 23.8726C15.6746 23.5696 16.0726 23.8105 16.2746 23.5923C16.8489 23.2666 17.6494 23.7953 18.3056 23.706C18.8115 23.7696 19.4373 23.2515 19.1836 22.7348C18.6429 22.0456 18.7385 21.1442 18.7264 20.3201C18.6595 19.8398 17.5036 19.2278 17.1694 18.7097C16.7562 18.2431 16.4342 17.7023 16.1121 17.1706C14.9501 14.9269 15.3161 12.044 13.8518 9.96092C13.1895 10.326 12.3266 10.1533 11.7555 9.66398C11.4471 9.94425 11.4334 10.3109 11.4092 10.7003C10.6694 9.96248 10.7621 8.56867 11.353 7.7476C11.5945 7.42341 11.8831 7.15678 12.2052 6.92196C12.278 6.86895 12.3024 6.81744 12.3008 6.73563C12.8857 4.11176 16.8747 4.61775 18.1355 6.47658C19.05 7.62039 19.3264 9.13375 20.3639 10.1958C21.7599 11.7198 23.3503 13.062 24.6385 14.6845C25.8567 16.1676 26.7272 17.9068 27.4867 19.6596C27.7966 20.2413 27.7996 20.9548 28.2584 21.4517C28.4847 21.7517 29.5906 22.5683 29.3506 22.8576C29.4888 23.1575 30.5217 23.5711 30.1632 23.862H30.1648ZM49.5385 14.9118L47.2919 17.1523C46.6934 17.7492 45.9537 18.1946 45.1516 18.4385L45.1106 18.4506L45.0954 18.49C44.8341 19.1778 44.4376 19.7914 43.9151 20.311L41.6684 22.5516C40.6886 23.5287 39.3853 24.0665 37.9969 24.0665C36.6085 24.0665 35.3051 23.5287 34.3254 22.5516C32.3005 20.5322 32.3005 17.2477 34.3254 15.2283L36.572 12.9878C37.1736 12.3879 37.8936 11.9561 38.7093 11.7062L38.7504 11.694L38.7655 11.6546C39.0268 10.9668 39.4248 10.3518 39.9489 9.8276L42.1955 7.58704C43.1753 6.60989 44.4786 6.07209 45.867 6.07209C47.2555 6.07209 48.5588 6.60989 49.5385 7.58704C50.5184 8.56413 51.0576 9.864 51.0576 11.2487C51.0576 12.6333 50.5184 13.9346 49.5385 14.9103V14.9118Z" fill="#B4B4B4"/>
<path d="M21.0261 21.1502C20.8286 21.9168 20.7648 23.2212 19.7653 23.2591C19.6833 23.7014 20.0722 23.868 20.4276 23.7256C20.7785 23.5651 20.9456 23.8529 21.0641 24.1392C21.6064 24.218 22.4085 23.9589 22.4388 23.3182C21.6292 22.8531 21.3785 21.9683 21.0276 21.1488L21.0261 21.1502Z" fill="#B4B4B4"/>
<path d="M73.928 8.05154H71.2594V24.2393H82.7052V21.6607H73.928V8.05154Z" fill="#B4B4B4"/>
<path d="M96.12 24.2393H98.7887V24.2105H98.8236L98.8289 24.0917C98.8296 24.0569 98.8393 23.7329 98.7901 23.2337V17.2091C98.7901 14.9425 100.443 13.9106 101.978 13.9106C103.63 13.9106 104.434 14.8009 104.434 16.6332V24.2393H107.103V16.278C107.103 13.2543 105.182 11.3753 102.09 11.3753C100.776 11.3753 99.6038 11.7484 98.683 12.4576L98.6584 11.5973H96.1237V24.2393H96.12Z" fill="#B4B4B4"/>
<path d="M117.964 12.526C117.036 11.7724 115.844 11.3753 114.498 11.3753C110.9 11.3753 108.665 13.8566 108.665 17.8511C108.665 21.8455 110.9 24.3497 114.498 24.3497C115.768 24.3497 116.901 24.0041 117.793 23.3465C117.716 25.306 116.489 26.4699 114.477 26.4699C112.785 26.4699 111.828 25.9311 111.631 24.8692L111.606 24.7372L109.014 25.528L109.037 25.6347C109.474 27.7453 111.449 29.0052 114.322 29.0052C116.271 29.0052 117.799 28.4749 118.866 27.4274C119.942 26.3714 120.487 24.85 120.487 22.9062V11.5973H118.019L117.965 12.526H117.964ZM117.797 17.9627C117.797 20.3744 116.622 21.8155 114.653 21.8155C112.543 21.8155 111.333 20.3708 111.333 17.8523C111.333 15.3337 112.544 13.9106 114.653 13.9106C116.575 13.9106 117.777 15.3445 117.797 17.6519V17.9627Z" fill="#B4B4B4"/>
<path d="M133.635 19.1061C133.082 20.8951 131.662 21.8814 129.637 21.8814C126.742 21.8814 124.942 19.6832 124.942 16.1448C124.942 12.6063 126.758 10.4081 129.682 10.4081C131.705 10.4081 132.871 11.2012 133.464 12.9783L133.741 13.8097L136.261 12.6267L136.024 11.9607C135.065 9.25739 132.849 7.82949 129.616 7.82949C127.419 7.82949 125.554 8.62264 124.222 10.1225C122.905 11.608 122.207 13.6898 122.207 16.146C122.207 21.1974 125.123 24.4624 129.637 24.4624C132.818 24.4624 135.282 22.7981 136.227 20.0096L136.469 19.2968L133.88 18.3129L133.634 19.1073L133.635 19.1061Z" fill="#B4B4B4"/>
<path d="M143.601 11.3753C142.327 11.3753 141.193 11.7245 140.303 12.388V6.50016H137.634V24.2405H140.303V17.2104C140.303 14.9294 141.955 13.8903 143.491 13.8903C145.143 13.8903 145.947 14.7806 145.947 16.6128V24.2417H148.616V16.2576C148.616 13.2927 146.648 11.3777 143.603 11.3777L143.601 11.3753Z" fill="#B4B4B4"/>
<path d="M164.214 6.1186C163.222 6.1186 162.502 6.83853 162.502 7.82964C162.502 8.82073 163.222 9.54071 164.214 9.54071C165.204 9.54071 165.924 8.82073 165.924 7.82964C165.924 6.83853 165.204 6.1186 164.214 6.1186Z" fill="#B4B4B4"/>
<path d="M173.717 11.3753C172.403 11.3753 171.231 11.7484 170.31 12.4576L170.285 11.5973H167.751V24.2393H170.42V17.2091C170.42 14.9425 172.072 13.9106 173.608 13.9106C175.26 13.9106 176.064 14.8009 176.064 16.6332V24.2393H178.732V16.278C178.732 13.2543 176.811 11.3753 173.72 11.3753H173.717Z" fill="#B4B4B4"/>
<path d="M165.51 11.5973H162.854V17.8643C162.117 17.2451 161.25 16.7772 160.27 16.4713V15.8341C160.27 13.042 158.437 11.3753 155.367 11.3753C152.872 11.3753 151.007 12.5464 150.247 14.5874L150.042 15.1381L152.181 16.7148L152.548 15.7585C153.032 14.4974 153.928 13.9095 155.367 13.9095C156.805 13.9095 157.601 14.6018 157.601 15.966V16.0369C157.516 16.0333 157.429 16.0309 157.343 16.0297C154.486 15.9841 152.402 16.6525 151.148 18.0131C149.865 19.4049 149.978 20.9684 149.995 21.1412L150.007 21.2612H150.019C150.218 23.2086 151.919 24.4589 154.391 24.4589C155.753 24.4589 157.011 24.0797 157.962 23.3874L157.973 24.2381H160.27V20.2832L160.22 20.2473C159.895 20.0097 159.329 19.7025 158.477 19.5945C158.209 19.561 157.954 19.5441 157.719 19.549H157.6V19.9125C157.6 20.7489 156.639 21.9259 154.501 21.9259C152.923 21.9259 152.687 21.2624 152.687 20.8664V20.8256C152.699 20.6481 152.774 20.2136 153.166 19.8093C153.664 19.2945 154.785 18.6923 157.299 18.7307C159.119 18.7594 160.516 19.2682 161.451 20.2436C162.598 21.4412 162.813 23.0802 162.853 23.7221V24.2393H165.508V11.5973H165.51Z" fill="#B4B4B4"/>
<path d="M89.2202 11.3201C86.7257 11.3201 84.8602 12.4912 84.1002 14.5322L83.8955 15.083L86.0349 16.6596L86.4019 15.7033C86.8857 14.4422 87.782 13.8543 89.2202 13.8543C90.6591 13.8543 91.4549 14.5466 91.4549 15.9109V16.2313L88.7065 16.716C85.4848 17.2859 83.8508 18.6634 83.8508 20.8088C83.8508 22.9542 85.5749 24.4037 88.2435 24.4037C89.6058 24.4037 90.8631 24.0245 91.8144 23.3322L91.8256 24.1829H94.122V15.7789C94.122 12.9867 92.2901 11.3201 89.2202 11.3201ZM91.4549 18.7319V19.8585C91.4549 20.6948 90.4931 21.8719 88.3552 21.8719C86.7771 21.8719 86.5426 21.2084 86.5426 20.8124C86.5426 20.4609 86.5426 19.6377 89.3378 19.1194L91.4549 18.733V18.7319Z" fill="#B4B4B4"/>
</g>
<defs>
<clipPath id="clip0_114_298">
<rect width="178.655" height="30.5203" fill="white" transform="translate(0.0771484)"/>
</clipPath>
</defs>
</svg>

<svg xmlns="http://www.w3.org/2000/svg" width="179" height="31" fill="none" viewBox="0 0 179 31"><g fill="#b4b4b4" clip-path="url(#a)"><path d="M45.868 8.305c-.79 0-1.533.306-2.089.862l-2.247 2.24a2.94 2.94 0 0 0-.853 2.305l.014.142c.08.66.37 1.256.84 1.723.323.322.68.527 1.113.67q.035.196.035.393c0 .594-.23 1.152-.65 1.57l-.139.138a4.9 4.9 0 0 1-1.94-1.194 5.13 5.13 0 0 1-1.435-2.732l-.026-.144-.114.093q-.116.094-.218.197l-2.247 2.24a2.946 2.946 0 0 0 2.09 5.03c.758 0 1.513-.288 2.089-.862l2.247-2.24a2.946 2.946 0 0 0 0-4.168 2.9 2.9 0 0 0-1.088-.685 2.42 2.42 0 0 1 .688-2.125 5.1 5.1 0 0 1 1.982 1.233 5.14 5.14 0 0 1 1.434 2.731l.026.144.114-.092q.116-.094.22-.199l2.247-2.24a2.945 2.945 0 0 0-2.09-5.03z"/><path d="M44.664.11H15.267C6.892.11.077 6.908.077 15.26s6.815 15.15 15.19 15.15h29.397c8.376 0 15.19-6.797 15.19-15.15S53.04.11 44.664.11m-14.5 23.752c-.484.1-1.03.118-1.4-.268-.136.313-.456.148-.702.107l-.063.184c-.82.054-1.433-.779-1.823-1.408-.775-.418-1.654-.672-2.446-1.11-.046.721.113 1.615-.576 2.08-.035 1.386 2.103.164 2.299 1.197-.152.016-.32-.025-.442.092-.558.541-1.197-.409-1.84-.017-.863.434-.95.788-2.017.878-.06-.09-.035-.149.015-.203.3-.349.322-.76.835-.908-.528-.083-.97.208-1.415.438-.58.236-.574-.533-1.465.04-.098-.08-.051-.152.005-.214.226-.276.524-.317.86-.302-1.652-.918-2.43 1.123-3.192.108-.23.06-.316.266-.46.412-.125-.136-.03-.302-.024-.462-.15-.07-.338-.103-.293-.341-.292-.098-.496.074-.713.238-.196-.152.132-.373.193-.53.175-.303.573-.062.775-.28.574-.326 1.374.202 2.03.113.506.064 1.132-.454.879-.971-.541-.69-.446-1.59-.458-2.415-.066-.48-1.222-1.092-1.557-1.61-.413-.467-.735-1.008-1.057-1.54-1.162-2.243-.796-5.126-2.26-7.21-.662.366-1.525.193-2.097-.296-.308.28-.322.647-.346 1.036-.74-.738-.647-2.131-.056-2.952.242-.325.53-.591.852-.826.073-.053.097-.105.096-.186.585-2.624 4.574-2.118 5.835-.26.914 1.144 1.19 2.658 2.228 3.72 1.396 1.524 2.986 2.866 4.275 4.489 1.218 1.483 2.088 3.222 2.848 4.975.31.581.313 1.295.771 1.792.227.3 1.333 1.116 1.093 1.406.138.3 1.17.713.812 1.004zm19.374-8.95-2.246 2.24a5.2 5.2 0 0 1-2.14 1.287l-.041.012-.016.039a5.1 5.1 0 0 1-1.18 1.821l-2.247 2.24a5.16 5.16 0 0 1-3.671 1.516 5.16 5.16 0 0 1-3.672-1.515 5.174 5.174 0 0 1 0-7.324l2.247-2.24a5.1 5.1 0 0 1 2.137-1.282l.041-.012.016-.04a5.2 5.2 0 0 1 1.183-1.826l2.247-2.241a5.16 5.16 0 0 1 3.671-1.515c1.389 0 2.692.538 3.672 1.515a5.14 5.14 0 0 1 1.519 3.662c0 1.384-.54 2.686-1.52 3.661z"/><path d="M21.026 21.15c-.197.767-.261 2.071-1.26 2.11-.083.441.306.608.662.466.35-.16.518.127.636.413.542.079 1.345-.18 1.375-.82-.81-.466-1.06-1.35-1.411-2.17zM73.928 8.052h-2.669v16.187h11.446v-2.578h-8.777zM96.12 24.24h2.669v-.03h.035l.005-.118c0-.035.01-.36-.039-.858v-6.025c0-2.266 1.653-3.298 3.188-3.298 1.652 0 2.456.89 2.456 2.722v7.606h2.669v-7.961c0-3.024-1.921-4.903-5.013-4.903-1.314 0-2.486.373-3.407 1.083l-.025-.86h-2.534v12.641zM117.964 12.526c-.928-.754-2.12-1.15-3.466-1.15-3.598 0-5.833 2.48-5.833 6.475s2.235 6.499 5.833 6.499c1.27 0 2.403-.346 3.295-1.004-.077 1.96-1.304 3.124-3.316 3.124-1.692 0-2.649-.539-2.846-1.6l-.025-.133-2.592.791.023.107c.437 2.11 2.412 3.37 5.285 3.37 1.949 0 3.477-.53 4.544-1.578 1.076-1.056 1.621-2.577 1.621-4.52v-11.31h-2.468l-.054.929zm-.167 5.437c0 2.411-1.175 3.852-3.144 3.852-2.11 0-3.32-1.444-3.32-3.963 0-2.518 1.211-3.941 3.32-3.941 1.922 0 3.124 1.434 3.144 3.74zM133.635 19.106c-.553 1.79-1.973 2.775-3.998 2.775-2.895 0-4.695-2.198-4.695-5.736 0-3.539 1.816-5.737 4.74-5.737 2.023 0 3.189.793 3.782 2.57l.277.832 2.52-1.183-.237-.666c-.959-2.704-3.175-4.132-6.408-4.132-2.197 0-4.062.794-5.394 2.294-1.317 1.485-2.015 3.567-2.015 6.023 0 5.051 2.916 8.316 7.43 8.316 3.181 0 5.645-1.664 6.59-4.452l.242-.713-2.589-.984-.246.794zM143.601 11.375c-1.274 0-2.408.35-3.298 1.013V6.5h-2.669v17.74h2.669v-7.03c0-2.28 1.652-3.32 3.188-3.32 1.652 0 2.456.89 2.456 2.723v7.629h2.669v-7.984c0-2.965-1.968-4.88-5.013-4.88zM164.214 6.119c-.992 0-1.712.72-1.712 1.71 0 .992.72 1.712 1.712 1.712.99 0 1.71-.72 1.71-1.711s-.72-1.711-1.71-1.711M173.717 11.375c-1.314 0-2.486.373-3.407 1.083l-.025-.86h-2.534v12.641h2.669v-7.03c0-2.266 1.652-3.298 3.188-3.298 1.652 0 2.456.89 2.456 2.722v7.606h2.668v-7.961c0-3.024-1.921-4.903-5.012-4.903zM165.51 11.597h-2.656v6.267a7.4 7.4 0 0 0-2.584-1.393v-.637c0-2.792-1.833-4.459-4.903-4.459-2.495 0-4.36 1.171-5.12 3.212l-.205.551 2.139 1.577.367-.957c.484-1.26 1.38-1.848 2.819-1.848 1.438 0 2.234.692 2.234 2.056v.07l-.258-.006c-2.857-.046-4.941.622-6.195 1.983-1.283 1.392-1.17 2.955-1.153 3.128l.012.12h.012c.199 1.948 1.9 3.198 4.372 3.198 1.362 0 2.62-.38 3.571-1.072l.011.851h2.297v-3.955l-.05-.036c-.325-.237-.891-.544-1.743-.652a5 5 0 0 0-.758-.046h-.119v.364c0 .836-.961 2.013-3.099 2.013-1.578 0-1.814-.664-1.814-1.06v-.04c.012-.178.087-.612.479-1.017.498-.515 1.619-1.117 4.133-1.078 1.82.028 3.217.537 4.152 1.513 1.147 1.197 1.362 2.836 1.402 3.478v.517h2.655V11.597zM89.22 11.32c-2.494 0-4.36 1.171-5.12 3.212l-.204.551 2.139 1.577.367-.957c.484-1.26 1.38-1.849 2.818-1.849 1.44 0 2.235.693 2.235 2.057v.32l-2.748.485c-3.222.57-4.856 1.947-4.856 4.093s1.724 3.595 4.392 3.595c1.363 0 2.62-.38 3.571-1.072l.012.85h2.296V15.78c0-2.792-1.832-4.459-4.902-4.459m2.235 7.412v1.127c0 .836-.962 2.013-3.1 2.013-1.578 0-1.812-.664-1.812-1.06 0-.351 0-1.174 2.795-1.693l2.117-.386z"/></g><defs><clipPath id="a"><path fill="#fff" d="M.077 0h178.655v30.52H.077z"/></clipPath></defs></svg>
